X:26
T:Les larmes de Svarog
M:4/4
L:1/8
Q:1/4=100
% Last note suggests Dorian mode tune
K:Bb % 2 flats
% Copyright (c) zzzz Copyright Holder
% Created by Rosegarden
% http://www.rosegardenmusic.com/
V:1
% english horn 27 -70
%%MIDI program 68
z8 | z8 | z8 | z8|
z8 | % Copyright (c) zzzz Copyright Holder
% Created by Rosegarden
% http://www.rosegardenmusic.com/
%%MIDI program 69
%%MIDI program 69
Cz E4 DC | D2 B,A, B,2 G,2 | C4 E2 DC|
D2 B,A, B,2 G,2 | D3E D2 CD | C4 E2 DC | D2 B,A, B,2 G,2|
C4 E2 DC | D2 B,A, B,2 G,2 | G,4 C2 C2- | CD2<C2B, A,2|
B,2 G,4 C2- | CD C4 B,2 | A,4<G,4 | Cz E4 DC|
D2 B,A, B,2 G,2 | C4 E2 DC | D2 B,A, B,2 G,2 | D3E D2 CD|
C4 E2 DC | D2 B,A, B,2 G,2 | C4 E2 DC | D2 B,A, B,2 G,2|
G,4 C2 C2- | CD2<C2B, A,2 | B,2 G,4 C2- | CD C4 B,2|
A,2 G,6 | C4 D2 EC | D2 B,A, B,2 G,2 | C4 E2 DC|
D2 B,A, B,2 G,2 | C4 E2 DC | D2 B,A, B,2 G,2 | D3F G2 ED|
E2 F2 D2 DF | G2 ED E2 F2 | D3E F2 ED | C3E G,2 G,E|
D3E B,2 B,2 | C2>E2 G,2>E2 | D2>E2 B,2 B,2 | C2>E2 C2 G,E|
D2>E2 B,2 B,z | D3F G2 ED | E2 F2 D2 DF | G2 ED E2 F2|
D3F G2 ED | E2 D2 C2 C2 | E2 DE C2 B,2 | C3E G,2 G,E|
D3E B,2 B,2 | C3E G,2>E2 | D3E B,4 | C2>E2 G,2 G,E|
D2>E2 B,2 B,2 | D3F G2 ED | E2 F2 D2 DE | F2 ED C2 ED|
C3E G,2 G,E | B,3E D2 D2 | C2>E2 G,2>E2 | D2>E2 B,4|
C2>E2 G,2 G,E | B,3E D2 D3/2z/2 | C3E G,2 G,E | D3E2<B,2E|
E3D C4|
V:2
%%MIDI program 69
%%MIDI program 69
z8 | z8 | z8 | z8|
z8 | z8 | z8 | z8|
z8 | z8 | z8 | z8|
z8 | z8 | z8 | z8|
z8 | z8 | z8 | % Copyright (c) zzzz Copyright Holder
% Created by Rosegarden
% http://www.rosegardenmusic.com/
%%MIDI program 69
%%MIDI program 60
%%MIDI program 69
C6 G2|
F4>E4 | G8 | F8 | G8|
F8 | D6 D2 | E8 | D8|
C8- | C4- CB, D2 | D4<C4 | C6- CB,|
D8 | C2 G2 F4 | DF G4 E2 | G6 FE|
D6 ED | C4>G4 | F4 DF G2 | F3D3 E2|
C2 D4- DC | G2 EG E2 D2 | G4 C3D | z4 C3E|
G,3E B,3E | G4 C3E | G,3E2<B,2E | G3z C3E|
G,3E B,2- B,/2z/2E | G3z C2>E2 | B,2 ED CD ED | C3z B,4|
A,4 D2 CB, | C4 C2>E2 | G,3E G4 | E4 D4|
F4 D4 | z4 C3E | G,3E G4 | G3F E2 DC|
D3E DC D2 | G,4 B,4 | B,2 D2 CD CB, | G,4 z4|
z4 C3E | F2>E2 D2>E2 | G4 C3E | G,3E2<B,2E|
G4 C2>E2 | B,2>E2 F3E | G3z C3E | G3F2<G2F|
E8|
